X:1
T:Albany
T:G Major              Hezekiah Moors, 1809
T:Transcribed from Province  Harmony, 1809
T:Nahum Tate and Nicholas Brady, 1698 (Psalm 95)                                88. 88. (L. M.)
%%score [ 1 2 3 4 ]
L:1/8
Q:1/4=120
M:2/2
K:G
V:1 treble nm="Tr." snm="Tr."
V:2 treble nm="A." snm="A."
V:3 treble-8 nm="T." snm="T."
V:4 bass nm="B." snm="B."
V:1
"_1. O come, loud anthems let _ __________ us    sing,  Loud  thanks      to   our      al – migh – ty    King;                                                 For  we  our   voi–ces\n2   In – to  his  presence  let ____________ us   haste,    To   thank       him  for      his   fa  – vors    past;                                                  To  him  ad–dress, in\n3.  O   let  us   to  his  courts ___________  re  – pair,    And bow         with   a  –   do  – ra – tion   there;                                               Down on our knees de–" B8 | %1
 G2 B2 c2 A2 | (GcBA G2) A2 | A6 B2 | (d3 c B2) G2 | B2 dB A2 G2 | F6 z2 |: z8 | z4 z2 A2 | %9
 d2 dc B2 A2 | %10
"_1. high should raise  When our salvation's rock we praise,  When our salvation's   rock __________________________________________    we  praise.\n2  joy – ful  songs,  The  praise  that to his name belongs,  The praise that to his name __________________________________________   be – longs.\n3. –vout –ly  all    Be – fore   the   Lord   our  Maker   fall,   Be – fore  the Lord our Ma          –          –          –          –          –          –       ker   fall." B2 c2 B2 B2 | %11
 BA G2 F2 A2 | F2 D2 G>A B>A | G2 B2 A2 c2 | (B4 cBAG | F2 GA Bcdc | B4) A4 |1 [GB]6 z2 :|2 %18
 [GB]8 |] %19
V:2
"_1. O come, loud anthems let _ __________ us    sing,  Loud  thanks      to   our      al – migh – ty    King;                                                                            For\n2   In – to  his  presence  let ____________ us   haste,    To   thank       him  for      his   fa  – vors    past;                                                                             To\n3.  O   let  us   to  his  courts ___________  re  – pair,    And bow         with   a  –   do  – ra – tion   there;                                                                           Down" D8 | %1
 D2 B,2 C2 E2 | (D3 C B,2) E2 | D6 D2 | D6 G2 | G2 FE E2 DB, | D6 z2 |: z8 | z8 | z4 z2 c2 | %10
"_1. we  our  voi –ces  high should  raise       When  our  sal–va–tion's rock we praise, When our   sal  –    va          –         –     tion's   rock  we  praise.\n2  him  address,  in   joy  –  ful   songs,       The  praise  that  to  his  name  belongs, The  praise that       to                             his     name  be– longs.\n3. on  our  knees   de – vout – ly    all          Be – fore   the       Lord  our  Maker fall,  Be – fore   the       Lord                         our     Ma  –  ker   fall." B2 A2 G2 F2 | %11
 GA B2 (A2 F2 | D2) D2 D2 D2 | D2 G2 E2 A2 | G2 G2 E2 E2 | D6 D2 | D4 D4 |1 D6 z2 :|2 D8 |] %19
V:3
"_1. O come, loud anthems let _ __________ us    sing,  Loud  thanks      to   our      al – migh – ty    King;                           For we our voices high should raise\n2   In – to  his  presence  let ____________ us   haste,    To   thank       him  for      his   fa  – vors    past;                           To   him  address  in  joyful  songs,\n3.  O   let  us   to  his  courts ___________  re  – pair,    And bow         with   a  –   do  – ra – tion   there;                          Down  on  our  knees  devoutly  all" G8 | %1
 B2 d2 e2 c2 | (Bedc B2) ^c2 | (d4 B2) g2 | (f3 e d2) B2 | dg fg c2 B2 | A6 z2 |: z4 z2 G2 | %8
 B2 G2 B2 c2 | B2 BA G2 D2 | %10
"_1. When our salvation's rock we praise,        When  our   sal   –   va  –   tion's     rock ____________________________________________  we praise.\n2  The  praise  that  to his name belongs,      The  praise  that      to        his       name ___________________________________________  be–longs.\n3. Be–fore  the  Lord  our  Maker  fall,           Be – fore   the      Lord      our       Ma           –          –          –          –          –          –           ker  fall." G2 F2 GA B2 | %11
 GF E2 D4- | D2 G2 B2 G2 | B4 c4 | (d4 edcB | A2 Bc dcBA | G4) F4 |1 G6 z2 :|2 G8 |] %19
V:4
 G,8 | G,2 G,2 C,2 C,2 | (G,3 A, B,2) A,2 | D,6 G,2 | B,6 D2 | G,2 D,E, C,2 G,,2 | %6
 D,6"_1. For we our voices high should raise When our salvation's\n2  To him address, in joyful songs,  The praise that  to  his\n3. Down on our knees devoutly all   Before  the  Lord  our" D,2 |: %7
 G,2 F,2 G,2 B,2 | G,2 E,2 E,2 A,2 | G,2 G,2 B,2 D2 | %10
"_1.  rock we praise, ______________________ When  our  sal   –   va   –   tion's   rock ______________________________________________ we praise.  For\n2   name  belongs, _____________________  The praise  that      to          his      name _____________________________________________ be–longs.   To\n3.  Ma– ker  fall, _______________________  Be – fore    the      Lord       our     Ma           –          –          –          –          –          –              ker   fall.   Down" G,2 A,2 (B,4 | %11
 E,F, G,2 D,4 | D,2) B,2 G,2 G,2 | G,4 A,4 | (B,2 G,2 C4 | DCB,A, G,A,B,C | D4) D,4 |1 G,6 D,2 :|2 %18
 G,8 |] %19

